X:2109 
T:Ta'n grein veg oarn
C:Tom Kermode, Bradda 
C:Traditional
O:Isle of Man
N:Last 2 bars are faint in MS.
Z: Clague collection
B:Kiaull Vannin #109 Revised version 
M:6/8 
L:1/8
Q:160 
K:D 
A|d2d d2B|A2G FGA|B2B A2c|d3-d2 d|ffd ggf|e2e AAA|d2d A2 F| 
G2F G2A|B3 A3|(Bcd) e2c|d3-d2 c|(Bcd) e2c|(d3d2)||
W:Third line is a revision of the original A tune, and the fourth is a new B tune by Anne Kissack.
A|d2d d2B|A2G FGA|B2B ABc|d3-d2 e|ffd g2f|e2c A2A|e2d c2B|A3-A2 e| 
ffd g2f|e2c A2A|e2d c2B|A3 ABc|d2d d2B|A2G FGA|B2B ABc|d3-d2|| 

